assets/images/svg/otp2.svg

<svg xmlns="http://www.w3.org/2000/svg" width="515" height="343" fill="none"><path fill="#fff" d="M337.675 117.049h-160.35c-4.607 0-8.341 3.722-8.341 8.314v72.828c0 4.592 3.734 8.314 8.341 8.314h67.269l14.289 18.267 11.908-18.267h66.884c4.607 0 8.341-3.722 8.341-8.314v-72.828c0-4.592-3.734-8.314-8.341-8.314Z"/><path fill="#17282F" d="M337.988 117.125s.267-.01.794.007c.519.055 1.315.133 2.283.514a8.221 8.221 0 0 1 3.166 2.142c1.051 1.106 1.941 2.747 2.186 4.748.144 7.939.107 19.495.165 34.127l.05 24.156.022 13.656c-.022 1.166.087 2.376-.163 3.62a8.54 8.54 0 0 1-1.516 3.42c-1.483 2.059-3.965 3.436-6.598 3.529l-67.353.085.336-.183-11.911 18.305-.317.486-.357-.458-14.313-18.29.334.163-57.88.01h-6.952c-1.172-.021-2.273.05-3.508-.059a8.74 8.74 0 0 1-3.418-1.134c-2.093-1.207-3.635-3.299-4.154-5.641-.285-1.182-.209-2.375-.22-3.484v-3.394l.006-26.679.012-25.75a49426.552 49426.552 0 0 1 .009-15.561 8.774 8.774 0 0 1 .59-3.135 8.787 8.787 0 0 1 4.161-4.626 8.506 8.506 0 0 1 3.002-.91c1.067-.098 2.036-.047 3.036-.06l5.928.005 11.615.01 22.209.022c14.329.018 27.679.036 39.866.053 24.358.058 44.07.105 57.725.136 6.797.037 12.081.064 15.694.082 1.776.02 3.136.033 4.081.043.919.015 1.39.045 1.39.045s-.471.03-1.39.044l-4.081.043-15.694.081c-13.655.034-33.367.08-57.725.139l-39.866.053-22.209.021c-3.817.004-7.69.005-11.615.009l-5.928.005c-.987.011-2.016-.032-2.946.058-.948.1-1.876.393-2.725.831a7.99 7.99 0 0 0-3.773 4.204 8.025 8.025 0 0 0-.533 2.847l.002 3.077.007 12.484.01 25.75c.003 8.746.005 17.646.006 26.679l.002 3.394c.01 1.15-.057 2.254.199 3.296.467 2.105 1.859 3.993 3.745 5.082a7.889 7.889 0 0 0 3.079 1.02c1.059.098 2.271.035 3.411.053h6.952l57.88.01h.209l.127.163 14.295 18.303-.672.029 11.932-18.29.118-.181h.219l67.322.046c2.43-.08 4.725-1.343 6.104-3.244a7.901 7.901 0 0 0 1.411-3.159c.234-1.121.139-2.311.162-3.497.009-4.718.015-9.272.022-13.656l.05-24.156c.012-14.621.124-26.216.063-34.099-.217-1.943-1.061-3.55-2.072-4.642a8.18 8.18 0 0 0-3.069-2.153c-1.918-.749-3.044-.566-3.029-.644"/><path fill="#33BFBF" d="M214.831 148.562H199.1a2.112 2.112 0 0 1-2.113-2.11v-11.215c0-1.166.947-2.11 2.113-2.11h15.731c1.167 0 2.113.944 2.113 2.11v11.215c0 1.166-.946 2.11-2.113 2.11Z"/><path fill="#fff" d="m197.046 133.481 7.798 8.124c.482.501.941.988 1.675 1.128.917.175 1.669-.23 2.284-.851 1.404-1.42 2.77-2.878 4.154-4.318 1.31-1.36 2.618-2.721 3.928-4.083.186-.193-.113-.484-.299-.29l-7.447 7.74c-.361.376-.733.867-1.185 1.148-1.113.689-2.07.007-2.811-.766l-4.21-4.384a6461.377 6461.377 0 0 0-3.588-3.738c-.186-.194-.485.097-.299.29"/><path fill="#fff" d="m216.89 147.881-5.833-6.651-.844-.961c-.176-.201-.472.092-.297.291 1.945 2.217 3.889 4.435 5.835 6.651l.842.962c.176.201.472-.092.297-.292Z"/><path fill="#17282F" d="m232.081 146.311-.012-5.21-2.606 4.292h-.924l-2.592-4.18v5.098h-1.922v-8.682h1.695l3.314 5.394 3.262-5.394h1.681l.026 8.682h-1.922ZM237.225 142.173h3.311c-.138-.868-.774-1.429-1.648-1.429-.888 0-1.524.549-1.663 1.429Zm5.11 1.162h-5.084c.187.856.899 1.38 1.923 1.38.712 0 1.224-.217 1.687-.665l1.036 1.15c-.625.727-1.561 1.111-2.772 1.111-2.322 0-3.834-1.495-3.834-3.537 0-2.056 1.535-3.537 3.583-3.537 1.974 0 3.498 1.353 3.498 3.563 0 .151-.025.368-.037.535M243.337 145.571l.585-1.432c.539.397 1.359.665 2.101.665.809 0 1.112-.243 1.112-.627 0-1.122-3.651.028-3.651-2.719 0-1.303 1.034-2.221 2.797-2.221.832 0 1.753.217 2.325.599l-.583 1.417a3.154 3.154 0 0 0-1.742-.509c-.786 0-1.123.28-1.123.637 0 1.174 3.651.039 3.651 2.746 0 1.276-1.045 2.184-2.854 2.184-1.022 0-2.056-.319-2.618-.74M249.453 145.571l.652-1.432c.605.397 1.521.665 2.349.665.905 0 1.243-.243 1.243-.627 0-1.122-4.081.028-4.081-2.719 0-1.303 1.155-2.221 3.128-2.221.93 0 1.959.217 2.6.599l-.654 1.417a3.837 3.837 0 0 0-1.946-.509c-.879 0-1.257.28-1.257.637 0 1.174 4.082.039 4.082 2.746 0 1.276-1.167 2.184-3.189 2.184-1.143 0-2.299-.319-2.927-.74M260.782 144.038v-.703h-1.281c-.873 0-1.149.345-1.149.804 0 .498.397.831 1.054.831.623 0 1.162-.307 1.376-.932Zm1.868-1.75v3.921h-1.748v-.855c-.347.625-1.017.957-1.963.957-1.507 0-2.405-.894-2.405-2.082 0-1.212.801-2.056 2.763-2.056h1.485c0-.856-.479-1.354-1.485-1.354-.681 0-1.386.243-1.854.639l-.67-1.391c.705-.538 1.746-.83 2.776-.83 1.963 0 3.101.969 3.101 3.051M269.186 142.476c0-.983-.702-1.644-1.679-1.644-.976 0-1.69.661-1.69 1.644 0 .985.714 1.646 1.69 1.646.977 0 1.679-.661 1.679-1.646Zm1.833-3.14v5.585c0 2.493-1.286 3.641-3.595 3.641-1.214 0-2.392-.313-3.143-.923l.738-1.397c.549.462 1.442.76 2.263.76 1.308 0 1.88-.622 1.88-1.831v-.287c-.488.561-1.19.835-2.024.835-1.772 0-3.2-1.284-3.2-3.243 0-1.957 1.428-3.239 3.2-3.239.894 0 1.631.311 2.12.96v-.861h1.761M274.329 142.173h3.461c-.144-.868-.81-1.429-1.723-1.429-.928 0-1.594.549-1.738 1.429Zm5.342 1.162h-5.316c.196.856.941 1.38 2.011 1.38.745 0 1.28-.217 1.764-.665l1.083 1.15c-.653.727-1.632 1.111-2.898 1.111-2.428 0-4.009-1.495-4.009-3.537 0-2.056 1.606-3.537 3.747-3.537 2.063 0 3.656 1.353 3.656 3.563 0 .151-.026.368-.038.535M280.353 145.571l.619-1.432c.571.397 1.439.665 2.225.665.857 0 1.177-.243 1.177-.627 0-1.122-3.865.028-3.865-2.719 0-1.303 1.094-2.221 2.961-2.221.88 0 1.856.217 2.463.599l-.619 1.417a3.485 3.485 0 0 0-1.844-.509c-.833 0-1.189.28-1.189.637 0 1.174 3.866.039 3.866 2.746 0 1.276-1.107 2.184-3.022 2.184-1.083 0-2.177-.319-2.772-.74M297.99 141.971c0-1.595-1.146-2.686-2.669-2.686-1.523 0-2.668 1.091-2.668 2.686 0 1.594 1.145 2.686 2.668 2.686 1.523 0 2.669-1.092 2.669-2.686Zm-7.337 0c0-2.495 1.975-4.342 4.668-4.342 2.68 0 4.667 1.835 4.667 4.342 0 2.506-1.987 4.34-4.667 4.34-2.693 0-4.668-1.847-4.668-4.34ZM303.146 139.266h-2.836v-1.637h7.725v1.637h-2.838v7.045h-2.051v-7.045M314.316 140.778c0-.955-.637-1.512-1.896-1.512h-1.681v3.013h1.681c1.259 0 1.896-.557 1.896-1.501Zm2.087 0c0 1.935-1.488 3.138-3.868 3.138h-1.796v2.395h-2.061v-8.682h3.857c2.38 0 3.868 1.202 3.868 3.149M211.173 171.393c0-5.51-1.983-7.796-4.851-7.796-2.833 0-4.814 2.286-4.814 7.796 0 5.509 1.981 7.794 4.814 7.794 2.868 0 4.851-2.285 4.851-7.794Zm-15.473 0c0-8.004 4.532-12.541 10.622-12.541 6.126 0 10.622 4.537 10.622 12.541 0 8.002-4.496 12.541-10.622 12.541-6.09 0-10.622-4.539-10.622-12.541ZM226.114 166.022c0 1.836 1.49 2.979 3.83 2.979 2.376 0 3.901-1.143 3.901-2.979 0-1.904-1.56-3.048-3.901-3.048-2.305 0-3.83 1.144-3.83 3.048Zm8.512 10.29c0-2.148-1.809-3.464-4.682-3.464-2.837 0-4.609 1.316-4.609 3.464 0 2.148 1.772 3.499 4.609 3.499 2.873 0 4.682-1.351 4.682-3.499Zm5.814.173c0 4.574-4.184 7.449-10.496 7.449-6.276 0-10.425-2.875-10.425-7.449 0-2.598 1.382-4.537 3.76-5.718-1.844-1.107-2.874-2.804-2.874-4.987 0-4.261 3.9-6.928 9.539-6.928 5.71 0 9.61 2.667 9.61 6.928 0 2.183-1.065 3.88-2.907 4.987 2.411 1.181 3.793 3.12 3.793 5.718ZM249.831 166.022c0 1.836 1.467 2.979 3.772 2.979 2.339 0 3.84-1.143 3.84-2.979 0-1.904-1.536-3.048-3.84-3.048-2.27 0-3.772 1.144-3.772 3.048Zm8.381 10.29c0-2.148-1.781-3.464-4.609-3.464-2.794 0-4.539 1.316-4.539 3.464 0 2.148 1.745 3.499 4.539 3.499 2.828 0 4.609-1.351 4.609-3.499Zm5.725.173c0 4.574-4.12 7.449-10.334 7.449-6.18 0-10.266-2.875-10.266-7.449 0-2.598 1.362-4.537 3.703-5.718-1.816-1.107-2.83-2.804-2.83-4.987 0-4.261 3.84-6.928 9.393-6.928 5.621 0 9.462 2.667 9.462 6.928 0 2.183-1.049 3.88-2.863 4.987 2.374 1.181 3.735 3.12 3.735 5.718M275.847 159.174v24.438h-5.697v-19.899h-4.925v-4.539h10.622ZM298.7 179.022v4.59h-18.514v-3.651l9.45-8.87c2.17-2.051 2.553-3.302 2.553-4.484 0-1.913-1.329-3.027-3.919-3.027-2.101 0-3.885.801-5.074 2.435l-4.131-2.643c1.89-2.746 5.32-4.52 9.729-4.52 5.461 0 9.101 2.782 9.101 7.198 0 2.365-.665 4.52-4.094 7.686l-5.637 5.286H298.7ZM319.622 176.075c0 4.102-3.208 7.859-10.222 7.859-3.456 0-7.016-.94-9.413-2.607l2.221-4.312c1.868 1.388 4.478 2.19 7.05 2.19 2.856 0 4.618-1.148 4.618-3.13 0-1.844-1.375-2.992-4.618-2.992h-2.609v-3.72l5.076-5.668h-10.504v-4.522h17.274v3.652l-5.57 6.259c4.441.695 6.697 3.409 6.697 6.991"/></svg>

<svg width="515" height="343" viewBox="0 0 515 343" fill="none" xmlns="http://www.w3.org/2000/svg">
<path d="M337.675 117.049H177.325C172.718 117.049 168.984 120.771 168.984 125.363V198.191C168.984 202.783 172.718 206.505 177.325 206.505H244.594L258.883 224.772L270.791 206.505H337.675C342.282 206.505 346.016 202.783 346.016 198.191V125.363C346.016 120.771 342.282 117.049 337.675 117.049Z" fill="white"/>
<path d="M337.988 117.125C337.988 117.125 338.255 117.115 338.782 117.132C339.301 117.187 340.097 117.265 341.065 117.646C342.028 118.014 343.195 118.652 344.231 119.788C345.282 120.894 346.172 122.535 346.417 124.536C346.561 132.475 346.524 144.031 346.582 158.663C346.597 165.979 346.614 174.055 346.632 182.819C346.639 187.203 346.646 191.757 346.654 196.475C346.632 197.641 346.741 198.851 346.491 200.095C346.254 201.32 345.726 202.495 344.975 203.515C343.492 205.574 341.01 206.951 338.377 207.044C318.181 207.069 295.53 207.098 271.024 207.129L271.36 206.946C267.616 212.7 263.573 218.914 259.449 225.251L259.132 225.737L258.775 225.279C254.259 219.507 249.402 213.301 244.462 206.989L244.796 207.152C226.247 207.156 206.834 207.159 186.916 207.162C184.592 207.162 182.273 207.162 179.964 207.162C178.792 207.141 177.691 207.212 176.456 207.103C175.253 206.968 174.079 206.577 173.038 205.969C170.945 204.762 169.403 202.67 168.884 200.328C168.599 199.146 168.675 197.953 168.664 196.844V193.45C168.667 184.417 168.669 175.517 168.67 166.771C168.674 158.026 168.679 149.435 168.682 141.021C168.684 136.815 168.686 132.652 168.689 128.537C168.689 127.509 168.689 126.482 168.691 125.46C168.696 124.388 168.894 123.319 169.281 122.325C170.046 120.331 171.563 118.662 173.442 117.699C174.378 117.217 175.401 116.897 176.444 116.789C177.511 116.691 178.48 116.742 179.48 116.729C181.469 116.731 183.445 116.732 185.408 116.734C189.333 116.737 193.206 116.741 197.023 116.744C204.656 116.751 212.068 116.759 219.232 116.766C233.561 116.784 246.911 116.802 259.098 116.819C283.456 116.877 303.168 116.924 316.823 116.955C323.62 116.992 328.904 117.019 332.517 117.037C334.293 117.057 335.653 117.07 336.598 117.08C337.517 117.095 337.988 117.125 337.988 117.125C337.988 117.125 337.517 117.155 336.598 117.169C335.655 117.179 334.293 117.193 332.517 117.212C328.904 117.23 323.62 117.258 316.823 117.293C303.168 117.327 283.456 117.373 259.098 117.432C246.911 117.448 233.561 117.465 219.232 117.485C212.068 117.491 204.656 117.498 197.023 117.506C193.206 117.51 189.333 117.511 185.408 117.515C183.445 117.516 181.469 117.518 179.48 117.52C178.493 117.531 177.464 117.488 176.534 117.578C175.586 117.678 174.658 117.971 173.809 118.409C172.105 119.286 170.727 120.805 170.036 122.613C169.687 123.517 169.508 124.484 169.503 125.46C169.503 126.482 169.505 127.509 169.505 128.537C169.507 132.652 169.51 136.815 169.512 141.021C169.515 149.435 169.518 158.026 169.522 166.771C169.525 175.517 169.527 184.417 169.528 193.45L169.53 196.844C169.54 197.994 169.473 199.098 169.729 200.14C170.196 202.245 171.588 204.133 173.474 205.222C174.413 205.769 175.468 206.12 176.553 206.242C177.612 206.34 178.824 206.277 179.964 206.295C182.273 206.295 184.592 206.295 186.916 206.295C206.834 206.299 226.247 206.302 244.796 206.305H245.005L245.132 206.468C250.065 212.785 254.916 218.996 259.427 224.771L258.755 224.8C262.885 218.468 266.937 212.259 270.687 206.51L270.805 206.329H271.024C295.52 206.345 318.16 206.362 338.346 206.375C340.776 206.295 343.071 205.032 344.45 203.131C345.147 202.189 345.639 201.104 345.861 199.972C346.095 198.851 346 197.661 346.023 196.475C346.032 191.757 346.038 187.203 346.045 182.819C346.063 174.055 346.08 165.979 346.095 158.663C346.107 144.042 346.219 132.447 346.158 124.564C345.941 122.621 345.097 121.014 344.086 119.922C343.088 118.796 341.956 118.151 341.017 117.769C339.099 117.02 337.973 117.203 337.988 117.125" fill="#17282F"/>
<path d="M214.831 148.562H199.1C197.934 148.562 196.987 147.618 196.987 146.452V135.237C196.987 134.071 197.934 133.127 199.1 133.127H214.831C215.998 133.127 216.944 134.071 216.944 135.237V146.452C216.944 147.618 215.998 148.562 214.831 148.562Z" fill="#33BFBF"/>
<path d="M197.046 133.481C199.645 136.189 202.245 138.897 204.844 141.605C205.326 142.106 205.785 142.593 206.519 142.733C207.436 142.908 208.188 142.503 208.803 141.882C210.207 140.462 211.573 139.004 212.957 137.564C214.267 136.204 215.575 134.843 216.885 133.481C217.071 133.288 216.772 132.997 216.586 133.191C214.103 135.771 211.622 138.35 209.139 140.931C208.778 141.307 208.406 141.798 207.954 142.079C206.841 142.768 205.884 142.086 205.143 141.313C203.739 139.851 202.336 138.39 200.933 136.929C199.737 135.682 198.541 134.436 197.345 133.191C197.159 132.997 196.86 133.288 197.046 133.481" fill="white"/>
<path d="M216.89 147.881C214.945 145.663 213.001 143.447 211.057 141.23C210.776 140.909 210.494 140.59 210.213 140.269C210.037 140.068 209.741 140.361 209.916 140.56C211.861 142.777 213.805 144.995 215.751 147.211C216.032 147.532 216.312 147.852 216.593 148.173C216.769 148.374 217.065 148.081 216.89 147.881Z" fill="white"/>
<path d="M232.081 146.311L232.069 141.101L229.463 145.393H228.539L225.947 141.213V146.311H224.025V137.629H225.72L229.034 143.023L232.296 137.629H233.977L234.003 146.311H232.081Z" fill="#17282F"/>
<path d="M237.225 142.173H240.536C240.398 141.305 239.762 140.744 238.888 140.744C238 140.744 237.364 141.293 237.225 142.173ZM242.335 143.335H237.251C237.438 144.191 238.15 144.715 239.174 144.715C239.886 144.715 240.398 144.498 240.861 144.05L241.897 145.2C241.272 145.927 240.336 146.311 239.125 146.311C236.803 146.311 235.291 144.816 235.291 142.774C235.291 140.718 236.826 139.237 238.874 139.237C240.848 139.237 242.372 140.59 242.372 142.8C242.372 142.951 242.347 143.168 242.335 143.335" fill="#17282F"/>
<path d="M243.337 145.571L243.922 144.139C244.461 144.536 245.281 144.804 246.023 144.804C246.832 144.804 247.135 144.561 247.135 144.177C247.135 143.055 243.484 144.205 243.484 141.458C243.484 140.155 244.518 139.237 246.281 139.237C247.113 139.237 248.034 139.454 248.606 139.836L248.023 141.253C247.428 140.871 246.832 140.744 246.281 140.744C245.495 140.744 245.158 141.024 245.158 141.381C245.158 142.555 248.809 141.42 248.809 144.127C248.809 145.403 247.764 146.311 245.955 146.311C244.933 146.311 243.899 145.992 243.337 145.571" fill="#17282F"/>
<path d="M249.453 145.571L250.105 144.139C250.71 144.536 251.626 144.804 252.454 144.804C253.359 144.804 253.697 144.561 253.697 144.177C253.697 143.055 249.616 144.205 249.616 141.458C249.616 140.155 250.771 139.237 252.744 139.237C253.674 139.237 254.703 139.454 255.344 139.836L254.69 141.253C254.024 140.871 253.359 140.744 252.744 140.744C251.865 140.744 251.487 141.024 251.487 141.381C251.487 142.555 255.569 141.42 255.569 144.127C255.569 145.403 254.402 146.311 252.38 146.311C251.237 146.311 250.081 145.992 249.453 145.571" fill="#17282F"/>
<path d="M260.782 144.038V143.335H259.501C258.628 143.335 258.352 143.68 258.352 144.139C258.352 144.637 258.749 144.97 259.406 144.97C260.029 144.97 260.568 144.663 260.782 144.038V144.038ZM262.65 142.288V146.209H260.902V145.354C260.555 145.979 259.885 146.311 258.939 146.311C257.432 146.311 256.534 145.417 256.534 144.229C256.534 143.017 257.335 142.173 259.297 142.173H260.782C260.782 141.317 260.303 140.819 259.297 140.819C258.616 140.819 257.911 141.062 257.443 141.458L256.773 140.067C257.478 139.529 258.519 139.237 259.549 139.237C261.512 139.237 262.65 140.206 262.65 142.288" fill="#17282F"/>
<path d="M269.186 142.476C269.186 141.493 268.484 140.832 267.507 140.832C266.531 140.832 265.817 141.493 265.817 142.476C265.817 143.461 266.531 144.122 267.507 144.122C268.484 144.122 269.186 143.461 269.186 142.476ZM271.019 139.336V144.921C271.019 147.414 269.733 148.562 267.424 148.562C266.21 148.562 265.032 148.249 264.281 147.639L265.019 146.242C265.568 146.704 266.461 147.002 267.282 147.002C268.59 147.002 269.162 146.38 269.162 145.171V144.884C268.674 145.445 267.972 145.719 267.138 145.719C265.366 145.719 263.938 144.435 263.938 142.476C263.938 140.519 265.366 139.237 267.138 139.237C268.032 139.237 268.769 139.548 269.258 140.197V139.336H271.019" fill="#17282F"/>
<path d="M274.329 142.173H277.79C277.646 141.305 276.98 140.744 276.067 140.744C275.139 140.744 274.473 141.293 274.329 142.173ZM279.671 143.335H274.355C274.551 144.191 275.296 144.715 276.366 144.715C277.111 144.715 277.646 144.498 278.13 144.05L279.213 145.2C278.56 145.927 277.581 146.311 276.315 146.311C273.887 146.311 272.306 144.816 272.306 142.774C272.306 140.718 273.912 139.237 276.053 139.237C278.116 139.237 279.709 140.59 279.709 142.8C279.709 142.951 279.683 143.168 279.671 143.335" fill="#17282F"/>
<path d="M280.353 145.571L280.972 144.139C281.543 144.536 282.411 144.804 283.197 144.804C284.054 144.804 284.374 144.561 284.374 144.177C284.374 143.055 280.509 144.205 280.509 141.458C280.509 140.155 281.603 139.237 283.47 139.237C284.35 139.237 285.326 139.454 285.933 139.836L285.314 141.253C284.684 140.871 284.053 140.744 283.47 140.744C282.637 140.744 282.281 141.024 282.281 141.381C282.281 142.555 286.147 141.42 286.147 144.127C286.147 145.403 285.04 146.311 283.125 146.311C282.042 146.311 280.948 145.992 280.353 145.571" fill="#17282F"/>
<path d="M297.99 141.971C297.99 140.376 296.844 139.285 295.321 139.285C293.798 139.285 292.653 140.376 292.653 141.971C292.653 143.565 293.798 144.657 295.321 144.657C296.844 144.657 297.99 143.565 297.99 141.971ZM290.653 141.971C290.653 139.476 292.628 137.629 295.321 137.629C298.001 137.629 299.988 139.464 299.988 141.971C299.988 144.477 298.001 146.311 295.321 146.311C292.628 146.311 290.653 144.464 290.653 141.971Z" fill="#17282F"/>
<path d="M303.146 139.266H300.31V137.629H308.035V139.266H305.197V146.311H303.146V139.266" fill="#17282F"/>
<path d="M314.316 140.778C314.316 139.823 313.679 139.266 312.42 139.266H310.739V142.279H312.42C313.679 142.279 314.316 141.722 314.316 140.778V140.778ZM316.403 140.778C316.403 142.713 314.915 143.916 312.535 143.916H310.739V146.311H308.678V137.629H312.535C314.915 137.629 316.403 138.831 316.403 140.778" fill="#17282F"/>
<path d="M211.173 171.393C211.173 165.883 209.19 163.597 206.322 163.597C203.489 163.597 201.508 165.883 201.508 171.393C201.508 176.902 203.489 179.187 206.322 179.187C209.19 179.187 211.173 176.902 211.173 171.393ZM195.7 171.393C195.7 163.389 200.232 158.852 206.322 158.852C212.448 158.852 216.944 163.389 216.944 171.393C216.944 179.395 212.448 183.934 206.322 183.934C200.232 183.934 195.7 179.395 195.7 171.393Z" fill="#17282F"/>
<path d="M226.114 166.022C226.114 167.858 227.604 169.001 229.944 169.001C232.32 169.001 233.845 167.858 233.845 166.022C233.845 164.118 232.285 162.974 229.944 162.974C227.639 162.974 226.114 164.118 226.114 166.022ZM234.626 176.312C234.626 174.164 232.817 172.848 229.944 172.848C227.107 172.848 225.335 174.164 225.335 176.312C225.335 178.46 227.107 179.811 229.944 179.811C232.817 179.811 234.626 178.46 234.626 176.312ZM240.44 176.485C240.44 181.059 236.256 183.934 229.944 183.934C223.668 183.934 219.519 181.059 219.519 176.485C219.519 173.887 220.901 171.948 223.279 170.767C221.435 169.66 220.405 167.963 220.405 165.78C220.405 161.519 224.305 158.852 229.944 158.852C235.654 158.852 239.554 161.519 239.554 165.78C239.554 167.963 238.489 169.66 236.647 170.767C239.058 171.948 240.44 173.887 240.44 176.485Z" fill="#17282F"/>
<path d="M249.831 166.022C249.831 167.858 251.298 169.001 253.603 169.001C255.942 169.001 257.443 167.858 257.443 166.022C257.443 164.118 255.907 162.974 253.603 162.974C251.333 162.974 249.831 164.118 249.831 166.022ZM258.212 176.312C258.212 174.164 256.431 172.848 253.603 172.848C250.809 172.848 249.064 174.164 249.064 176.312C249.064 178.46 250.809 179.811 253.603 179.811C256.431 179.811 258.212 178.46 258.212 176.312ZM263.937 176.485C263.937 181.059 259.817 183.934 253.603 183.934C247.423 183.934 243.337 181.059 243.337 176.485C243.337 173.887 244.699 171.948 247.04 170.767C245.224 169.66 244.21 167.963 244.21 165.78C244.21 161.519 248.05 158.852 253.603 158.852C259.224 158.852 263.065 161.519 263.065 165.78C263.065 167.963 262.016 169.66 260.202 170.767C262.576 171.948 263.937 173.887 263.937 176.485" fill="#17282F"/>
<path d="M275.847 159.174V183.612H270.15V163.713H265.225V159.174H275.847Z" fill="#17282F"/>
<path d="M298.7 179.022V183.612H280.186V179.961L289.636 171.091C291.806 169.04 292.189 167.789 292.189 166.607C292.189 164.694 290.86 163.58 288.27 163.58C286.169 163.58 284.385 164.381 283.196 166.015L279.065 163.372C280.955 160.626 284.385 158.852 288.794 158.852C294.255 158.852 297.895 161.634 297.895 166.05C297.895 168.415 297.23 170.57 293.801 173.736L288.164 179.022H298.7Z" fill="#17282F"/>
<path d="M319.622 176.075C319.622 180.177 316.414 183.934 309.4 183.934C305.944 183.934 302.384 182.994 299.987 181.327L302.208 177.015C304.076 178.403 306.686 179.205 309.258 179.205C312.114 179.205 313.876 178.057 313.876 176.075C313.876 174.231 312.501 173.083 309.258 173.083H306.649V169.363L311.725 163.695H301.221V159.173H318.495V162.825L312.925 169.084C317.366 169.779 319.622 172.493 319.622 176.075" fill="#17282F"/>
</svg>
